src/extras-openmoji/brand/F8FF.svg

<?xml version="1.0" encoding="UTF-8"?>
<svg id="emoji" xmlns="http://www.w3.org/2000/svg" viewBox="0 0 72 72">
  <g id="grid">
    <path d="m68,4v64H4V4h64Zm4-4H0v72h72V0Z" fill="#b3b3b3"/>
    <path d="m12.923,10.9583h46.1539c.51,0,.9992.2026,1.3598.5633.3607.3606.5633.8498.5633,1.3598v46.1538c0,.51-.2026.9992-.5633,1.3598-.3606.3607-.8498.5633-1.3598.5633H12.9231c-.51,0-.9992-.2026-1.3598-.5633-.3607-.3606-.5633-.8498-.5633-1.3598V12.8813c0-.51.2026-.9991.5632-1.3598.3607-.3606.8498-.5632,1.3598-.5632h0Z" fill="none" stroke="#00a5ff" stroke-miterlimit="10" stroke-width=".1"/>
    <path d="m53.7463,4H18.2537c-1.2447,0-2.2537,1.009-2.2537,2.2537v59.4926c0,1.2447,1.009,2.2537,2.2537,2.2537h35.4926c1.2447,0,2.2537-1.009,2.2537-2.2537V6.2537c0-1.2447-1.009-2.2537-2.2537-2.2537Z" fill="none" stroke="#00a5ff" stroke-miterlimit="10" stroke-width=".1"/>
    <path d="m68,53.7463V18.2537c0-1.2447-1.009-2.2537-2.2537-2.2537H6.2537c-1.2447,0-2.2537,1.009-2.2537,2.2537v35.4926c0,1.2447,1.009,2.2537,2.2537,2.2537h59.4926c1.2447,0,2.2537-1.009,2.2537-2.2537Z" fill="none" stroke="#00a5ff" stroke-miterlimit="10" stroke-width=".1"/>
    <path d="m36,65c16.0163,0,29-12.9837,29-29S52.0163,7,36,7,7,19.9837,7,36s12.9837,29,29,29Z" fill="none" stroke="#00a5ff" stroke-miterlimit="10" stroke-width=".1"/>
  </g>
  <g id="color">
    <g>
      <g>
        <path d="m42.1469,10.948h3.7013c0,.0254.0002.0507.0002.0761,0,2.5601-.9327,4.9505-2.7919,7.163-2.2436,2.6302-4.9573,4.1501-7.9001,3.9102-.0375-.3071-.0592-.6303-.0592-.97,0-2.4577,1.0669-5.0879,2.9617-7.2385.9459-1.0889,2.149-1.9943,3.608-2.7165.161-.0787.321-.1535.48-.2243Zm-25.9183,19.9074c.1901-.3972.413-.7834.637-1.1587,1.1637-1.9916,3.2156-3.5627,5.1532-4.716,1.9376-1.1533,2.3299-1.2277,4.5845-1.2653,1.2337,0,2.8016.6472,4.812,1.3992,2.0047.7546,3.4937,1.0807,4.0581,1.0807.4219,0,1.8519-.3025,4.276-1.1945,2.2925-.8272,4.2273-1.2043,5.8123-1.0693,4.2949.3475,6.1665,1.015,8.3124,4.0737-1.2833.7797-2.086,1.8039-2.9361,2.7919l-34.7093.0582Z" fill="#5c9e31" fill-rule="evenodd"/>
        <path d="m40.7856,21.5333s-1.3699.8902-5.4221,1.5403c-.1434.023.3708-1.3663.3708-1.3663l4.0062-.9993" fill="#5c9e31" fill-rule="evenodd"/>
      </g>
      <path d="m52.6643,28.9359c-2.2919,1.9394-3.4617,4.1534-3.9416,6.9864l-34.1663-.2396c.2949-2.2984,1.0311-3.7198,2.1045-5.5173.1718-.294.4712-.8898.6598-1.1655l35.3436-.0641Z" fill="#fcea2b" fill-rule="evenodd"/>
      <path d="m49.1968,34.1426c-.2376.9408-.6439,2.0396-.6343,3.0985.0195,1.8418.0861,3.5081.8338,4.9991l-34.5609.0262c-.2584-1.5016-.3358-2.8765-.3358-4.3312,0-1.2515.0535-2.5944.2503-3.7199l34.447-.0727Z" fill="#f4aa41" fill-rule="evenodd"/>
      <path d="m49.3791,42.2278c.5638,1.7489,1.5864,2.9417,3.0152,4.2694,1.0524,1.0017,1.6614,1.8998,2.9691,2.4496-.0067.0194-.0063.0538-.0129.0732l-38.6973-.0153c-.082-.2237-.6918-1.9654-.7706-2.1934-.7372-2.1531-.8066-2.5025-1.0473-4.5646l34.5438-.0189Z" fill="#ea5a47" fill-rule="evenodd"/>
      <path d="m52.0635,55.9718c.9372-1.3965,1.7551-2.9032,2.4561-4.5271.3182-.7584.7828-1.5483,1.0664-2.3731.8947.3762.7273.3228-.2195-.0998l-38.7201.0269c.9503,2.6266,2.5067,4.9726,3.9153,7.0142l31.5019-.0411Z" fill="#8967aa" fill-rule="evenodd"/>
      <path d="m26.5595,61.1945c-1.0981-.264-1.7879-.6457-2.8823-1.6661-.9284-.812-1.8014-1.6615-3.1656-3.5654l31.6389-.05c-1.3762,1.9501-1.7364,2.5664-2.6157,3.3322-1.1599,1.0696-2.3159,1.6671-3.6154,1.8827l-1.5328.1c-.9296-.1354-2.0298-.3843-3.1989-.8664-1.6377-.6698-3.6221-1.0496-4.9982-1.0496-1.4432,0-2.9428.1133-4.5984.7831-1.1195.4545-2.8207,1.0704-3.6487,1.2329l-1.3828-.1333Z" fill="#61b2e4" fill-rule="evenodd"/>
    </g>
  </g>
  <g id="line">
    <path id="path4" d="m35.1564,22.0973c-.0375-.3071-.0592-.6303-.0592-.97,0-2.4577,1.0669-5.0879,2.9617-7.2385.946-1.0889,2.1491-1.9943,3.608-2.7165,1.4558-.7115,2.8329-1.1049,4.128-1.1723.0378.3422.0535.6845.0535,1.0241,0,2.5601-.9327,4.9505-2.7918,7.163-.8303.9733-1.725,1.7946-2.6718,2.4309m15.314,30.2229c-.772,1.7884-1.6858,3.4347-2.7446,4.9483-1.4432,2.0633-2.6249,3.4915-3.5356,4.2847-1.4117,1.3018-2.9242,1.9685-4.5439,2.0064-1.1627,0-2.565-.3317-4.1972-1.0048-1.6377-.6699-3.1426-1.0016-4.5187-1.0016-1.4432,0-2.9911.3317-4.6466,1.0016-1.6582.6731-2.9939,1.0238-4.0152,1.0586-1.5532.0663-3.1013-.6194-4.6466-2.0602-.9863-.8627-2.22-2.3415-3.6978-4.4364-1.5857-2.2372-2.8893-4.8314-3.9106-7.7889-1.0937-3.1946-1.642-6.2881-1.642-9.2829,0-3.4306.7393-6.3895,2.22-8.869,1.1637-1.9916,2.7118-3.5627,4.6494-4.716,1.9376-1.1533,4.0312-1.7411,6.2858-1.7787,1.2337,0,2.8515.3827,4.8619,1.1347,2.0047.7546,3.292,1.1372,3.8563,1.1372.4219,0,1.8519-.4474,4.2761-1.3394,2.2924-.8272,4.2272-1.1698,5.8122-1.0348,4.2949.3475,7.5217,2.0453,9.6676,5.104-3.8412,2.3338-5.7413,5.6027-5.7035,9.796.0346,3.2663,1.2163,5.9844,3.5387,8.1426,1.0524,1.0016,2.2278,1.7758,3.5355,2.3256-.2836.8247-.5829,1.6146-.9012,2.373Z" fill="none" stroke="#000" stroke-linecap="round" stroke-linejoin="round" stroke-width="2"/>
  </g>
</svg>

<svg id="emoji" viewBox="0 0 72 72" xmlns="http://www.w3.org/2000/svg">
  <g id="grid">
    <path fill="#B3B3B3" d="M68 4V68H4V4H68ZM72 0H0V72H72V0Z"/>
    <path fill="none" stroke="#00A5FF" stroke-miterlimit="10" stroke-width="0.1" d="M12.923 10.9583H59.0769C59.5869 10.9583 60.0761 11.1609 60.4367 11.5216C60.7974 11.8822 61 12.3714 61 12.8814V59.0352C61 59.5452 60.7974 60.0344 60.4367 60.395C60.0761 60.7557 59.5869 60.9583 59.0769 60.9583H12.9231C12.4131 60.9583 11.9239 60.7557 11.5633 60.395C11.2026 60.0344 11 59.5452 11 59.0352V12.8813C11 12.3713 11.2026 11.8822 11.5632 11.5215C11.9239 11.1609 12.413 10.9583 12.923 10.9583V10.9583Z"/>
    <path fill="none" stroke="#00A5FF" stroke-miterlimit="10" stroke-width="0.1" d="M53.7463 4H18.2537C17.009 4 16 5.00902 16 6.2537V65.7463C16 66.991 17.009 68 18.2537 68H53.7463C54.991 68 56 66.991 56 65.7463V6.2537C56 5.00902 54.991 4 53.7463 4Z"/>
    <path fill="none" stroke="#00A5FF" stroke-miterlimit="10" stroke-width="0.1" d="M68 53.7463V18.2537C68 17.009 66.991 16 65.7463 16L6.2537 16C5.00902 16 4 17.009 4 18.2537V53.7463C4 54.991 5.00902 56 6.2537 56L65.7463 56C66.991 56 68 54.991 68 53.7463Z"/>
    <path fill="none" stroke="#00A5FF" stroke-miterlimit="10" stroke-width="0.1" d="M36 65C52.0163 65 65 52.0163 65 36C65 19.9837 52.0163 7 36 7C19.9837 7 7 19.9837 7 36C7 52.0163 19.9837 65 36 65Z"/>
  </g>
  <g id="color">
    <g>
      <g>
        <path fill="#5c9e31" fill-rule="evenodd" d="M42.1469 10.948L45.8482 10.948C45.8483 10.9734 45.8484 10.9987 45.8484 11.0241C45.8484 13.5842 44.9157 15.9746 43.0565 18.1871C40.8129 20.8173 38.0992 22.3372 35.1564 22.0973C35.1189 21.7902 35.0972 21.467 35.0972 21.1273C35.0972 18.6696 36.1641 16.0394 38.0589 13.8888C39.0048 12.7999 40.2079 11.8945 41.6669 11.1723C41.8279 11.0936 41.9879 11.0188 42.1469 10.948ZM15.1986 30.8554C15.3887 30.4582 15.5959 30.072 15.8199 29.6967C16.9836 27.7051 18.5318 26.134 20.4694 24.9807C22.407 23.8274 24.5006 23.2396 26.7552 23.202C27.9889 23.202 29.6067 23.5847 31.6171 24.3367C33.6218 25.0913 34.909 25.4739 35.4734 25.4739C35.8953 25.4739 37.3253 25.0265 39.7494 24.1345C42.0419 23.3073 43.9767 22.9647 45.5617 23.0997C49.8566 23.4472 53.0834 25.145 55.2293 28.2037C53.946 28.9834 52.8794 29.8674 52.0293 30.8554H15.1986Z" clip-rule="evenodd"/>
        <path fill="#5c9e31" d="M42.1469 10.948V9.94797C42.0067 9.94797 41.868 9.97748 41.7398 10.0346L42.1469 10.948ZM45.8482 10.948L46.8481 10.9409C46.8442 10.3914 46.3977 9.94797 45.8482 9.94797V10.948ZM43.0565 18.1871L43.8174 18.8361L43.8221 18.8304L43.0565 18.1871ZM35.1564 22.0973L34.1638 22.2185C34.2213 22.6897 34.6021 23.0555 35.0752 23.094L35.1564 22.0973ZM38.0589 13.8888L38.8092 14.5499L38.8138 14.5446L38.0589 13.8888ZM41.6669 11.1723L41.2278 10.2738L41.2232 10.2761L41.6669 11.1723ZM15.1986 30.8554L14.2966 30.4236C14.1483 30.7334 14.1694 31.0977 14.3525 31.3884C14.5356 31.6791 14.8551 31.8554 15.1986 31.8554V30.8554ZM15.8199 29.6967L16.6785 30.2094L16.6834 30.2012L15.8199 29.6967ZM20.4694 24.9807L19.9579 24.1214L19.9579 24.1214L20.4694 24.9807ZM26.7552 23.202V22.202C26.7497 22.202 26.7441 22.2021 26.7386 22.2022L26.7552 23.202ZM31.6171 24.3367L31.9693 23.4008L31.9674 23.4001L31.6171 24.3367ZM39.7494 24.1345L39.41 23.1938L39.4041 23.196L39.7494 24.1345ZM45.5617 23.0997L45.4768 24.0961L45.481 24.0964L45.5617 23.0997ZM55.2293 28.2037L55.7485 29.0583C55.9849 28.9147 56.1513 28.6795 56.208 28.4088C56.2647 28.138 56.2068 27.8558 56.0479 27.6294L55.2293 28.2037ZM52.0293 30.8554V31.8554C52.3206 31.8554 52.5974 31.7284 52.7873 31.5076L52.0293 30.8554ZM42.1469 11.948H45.8482V9.94797H42.1469V11.948ZM44.8482 10.955C44.8483 10.978 44.8484 11.001 44.8484 11.0241H46.8484C46.8484 10.9964 46.8483 10.9687 46.8481 10.9409L44.8482 10.955ZM44.8484 11.0241C44.8484 13.3181 44.0197 15.4864 42.2909 17.5437L43.8221 18.8304C45.8117 16.4627 46.8484 13.8503 46.8484 11.0241H44.8484ZM42.2957 17.5381C40.1755 20.0237 37.7486 21.3053 35.2376 21.1006L35.0752 23.094C38.4498 23.3691 41.4504 21.6109 43.8173 18.836L42.2957 17.5381ZM36.149 21.9761C36.1161 21.7068 36.0972 21.4241 36.0972 21.1273H34.0972C34.0972 21.5098 34.1217 21.8736 34.1638 22.2185L36.149 21.9761ZM36.0972 21.1273C36.0972 18.9494 37.0495 16.5471 38.8092 14.5499L37.3086 13.2277C35.2787 15.5316 34.0972 18.3898 34.0972 21.1273H36.0972ZM38.8138 14.5446C39.6623 13.5679 40.7548 12.7396 42.1106 12.0685L41.2232 10.2761C39.6611 11.0494 38.3474 12.0319 37.304 13.233L38.8138 14.5446ZM42.106 12.0707C42.2567 11.9971 42.406 11.9273 42.554 11.8614L41.7398 10.0346C41.5697 10.1104 41.3991 10.1902 41.2278 10.2738L42.106 12.0707ZM16.1006 31.2872C16.2776 30.9174 16.4702 30.5582 16.6785 30.2094L14.9614 29.184C14.7215 29.5858 14.4999 29.999 14.2966 30.4236L16.1006 31.2872ZM16.6834 30.2012C17.7638 28.352 19.1924 26.9046 20.9809 25.84L19.9579 24.1214C17.8712 25.3635 16.2035 27.0582 14.9565 29.1922L16.6834 30.2012ZM20.9809 25.84C22.7668 24.777 24.6895 24.2366 26.7719 24.2019L26.7386 22.2022C24.3117 22.2427 22.0472 22.8778 19.9579 24.1214L20.9809 25.84ZM26.7552 24.202C27.8099 24.202 29.2945 24.5356 31.2667 25.2733L31.9674 23.4001C29.9189 22.6338 28.1679 22.202 26.7552 22.202V24.202ZM31.2648 25.2726C32.2777 25.6539 33.1261 25.9476 33.802 26.1473C34.4443 26.3371 35.0316 26.4739 35.4734 26.4739V24.4739C35.3508 24.4739 35.0123 24.4195 34.3688 24.2293C33.7588 24.0491 32.9611 23.7741 31.9693 23.4008L31.2648 25.2726ZM35.4734 26.4739C35.7078 26.4739 35.9768 26.4193 36.2135 26.3621C36.4748 26.299 36.7921 26.2081 37.1594 26.093C37.8955 25.8625 38.8766 25.5212 40.0948 25.073L39.4041 23.196C38.1982 23.6398 37.2522 23.9682 36.5617 24.1844C36.2158 24.2927 35.945 24.3694 35.7438 24.4181C35.5179 24.4726 35.45 24.4739 35.4734 24.4739V26.4739ZM40.0889 25.0751C42.3097 24.2737 44.0908 23.9781 45.4768 24.0961L45.6465 22.1033C43.8625 21.9514 41.7741 22.3408 39.41 23.1939L40.0889 25.0751ZM45.481 24.0964C49.5318 24.4242 52.4637 26.003 54.4106 28.778L56.0479 27.6294C53.703 24.2871 50.1814 22.4703 45.6423 22.1029L45.481 24.0964ZM54.71 27.3491C53.3503 28.1752 52.1993 29.1246 51.2713 30.2031L52.7873 31.5076C53.5595 30.6102 54.5417 29.7916 55.7485 29.0583L54.71 27.3491ZM52.0293 29.8554H15.1986V31.8554H52.0293V29.8554Z"/>
      </g>
      <path fill="#fcea2b" fill-rule="evenodd" d="M54.2597 29C51.6933 30.8323 50.1708 33.167 49.6909 36H13.7679C14.0628 33.7016 14.7466 31.6522 15.82 29.8547C15.9918 29.5607 16.172 29.2757 16.3606 29L54.2597 29Z" clip-rule="evenodd"/>
      <path fill="#f4aa41" fill-rule="evenodd" d="M49.8679 35C49.6303 35.9408 49.5162 36.9408 49.5258 37.9997C49.5453 39.8415 49.9296 41.509 50.6773 43H13.9878C13.7294 41.4984 13.6 40.0204 13.6 38.5657C13.6 37.3142 13.6984 36.1255 13.8952 35H49.8679Z" clip-rule="evenodd"/>
      <path fill="#ea5a47" fill-rule="evenodd" d="M50.0749 42C50.6387 43.7489 51.6357 45.2885 53.0645 46.6162C54.1169 47.6179 55.2923 48.3921 56.6 48.9419C56.5933 48.9613 56.5866 48.9806 56.58 49H15.4832C15.4012 48.7763 15.3208 48.5505 15.242 48.3225C14.5048 46.1694 14.0154 44.0621 13.7747 42H50.0749Z" clip-rule="evenodd"/>
      <path fill="#8967aa" fill-rule="evenodd" d="M53.2427 56C54.1799 54.6035 54.9978 53.0968 55.6988 51.4729C56.017 50.7145 56.3164 49.9246 56.6 49.0998C56.5227 49.0673 56.4459 49.0341 56.3695 49L15.4257 49C16.376 51.6266 17.5555 53.9584 18.9641 56H53.2427Z" clip-rule="evenodd"/>
      <path fill="#61b2e4" fill-rule="evenodd" d="M26.1387 62C25.0406 61.736 23.9448 61.0943 22.8504 60.0739C21.922 59.2619 20.7744 57.9039 19.4102 56L52.8061 56C51.4299 57.9501 50.2979 59.3081 49.4186 60.0739C48.2587 61.1435 47.0308 61.7844 45.7313 62H43.8273C42.8977 61.8646 41.8466 61.5576 40.6775 61.0755C39.0398 60.4057 37.5349 60.0739 36.1588 60.0739C34.7156 60.0739 33.1677 60.4057 31.5121 61.0755C30.3926 61.53 29.4199 61.8375 28.5919 62H26.1387Z" clip-rule="evenodd"/>
    </g>
  </g>
  <g id="line">
    <path id="path4" fill="none" stroke="#000" stroke-linecap="round" stroke-linejoin="round" stroke-width="2" d="M35.1564 22.0973C35.1189 21.7902 35.0972 21.467 35.0972 21.1273C35.0972 18.6696 36.1641 16.0394 38.0589 13.8888C39.0049 12.7999 40.208 11.8945 41.6669 11.1723C43.1227 10.4608 44.4998 10.0674 45.7949 10C45.8327 10.3422 45.8484 10.6845 45.8484 11.0241C45.8484 13.5842 44.9157 15.9746 43.0566 18.1871C42.2263 19.1604 41.3316 19.9817 40.3848 20.618M55.6988 50.8409C54.9268 52.6293 54.013 54.2756 52.9542 55.7892C51.511 57.8525 50.3293 59.2807 49.4186 60.0739C48.0069 61.3757 46.4944 62.0424 44.8747 62.0803C43.712 62.0803 42.3097 61.7486 40.6775 61.0755C39.0398 60.4056 37.5349 60.0739 36.1588 60.0739C34.7156 60.0739 33.1677 60.4056 31.5122 61.0755C29.854 61.7486 28.5183 62.0993 27.497 62.1341C25.9438 62.2004 24.3957 61.5147 22.8504 60.0739C21.8641 59.2112 20.6304 57.7324 19.1526 55.6375C17.5669 53.4003 16.2633 50.8061 15.242 47.8486C14.1483 44.654 13.6 41.5605 13.6 38.5657C13.6 35.1351 14.3393 32.1762 15.82 29.6967C16.9837 27.7051 18.5318 26.134 20.4694 24.9807C22.407 23.8274 24.5006 23.2396 26.7552 23.202C27.9889 23.202 29.6067 23.5847 31.6171 24.3367C33.6218 25.0913 34.9091 25.4739 35.4734 25.4739C35.8953 25.4739 37.3253 25.0265 39.7495 24.1345C42.0419 23.3073 43.9767 22.9647 45.5617 23.0997C49.8566 23.4472 53.0834 25.145 55.2293 28.2037C51.3881 30.5375 49.488 33.8064 49.5258 37.9997C49.5604 41.266 50.7421 43.9841 53.0645 46.1423C54.1169 47.1439 55.2923 47.9181 56.6 48.4679C56.3164 49.2926 56.0171 50.0825 55.6988 50.8409Z"/>
  </g>
</svg>
